X:1
T:Rail no more, ye learned asses
T:William Boyce (1711-1779)
T:M. Wood Hill
T:Rail no more, ye learned asses
T:Copyright © 2005 by the Choral Public Domain Library (http://www.cpdl.org) Edition may be freely distributed, duplicated, performed, or recorded. Please send comments, amendments, suggestions and corrections to robertnottingham6@hotmail.com
T:Copyright © 2005 by the Choral Public Domain Library (http://www.cpdl.org) Edition may be freely distributed, duplicated, performed, or recorded. Please send comments, amendments, suggestions and corrections to robertnottingham6@hotmail.com
T:Copyright © 2005 by the Choral Public Domain Library (http://www.cpdl.org) Edition may be freely distributed, duplicated, performed, or recorded. Please send comments, amendments, suggestions and corrections to robertnottingham6@hotmail.com
T:Copyright © 2005 by the Choral Public Domain Library (http://www.cpdl.org) Edition may be freely distributed, duplicated, performed, or recorded. Please send comments, amendments, suggestions and corrections to robertnottingham6@hotmail.com
T:Copyright © 2005 by the Choral Public Domain Library (http://www.cpdl.org) Edition may be freely distributed, duplicated, performed, or recorded. Please send comments, amendments, suggestions and corrections to robertnottingham6@hotmail.com
T:Copyright © 2005 by the Choral Public Domain Library (http://www.cpdl.org) Edition may be freely distributed, duplicated, performed, or recorded. Please send comments, amendments, suggestions and corrections to robertnottingham6@hotmail.com
T:Copyright © 2005 by the Choral Public Domain Library (http://www.cpdl.org) Edition may be freely distributed, duplicated, performed, or recorded. Please send comments, amendments, suggestions and corrections to robertnottingham6@hotmail.com
C:William Boyce
C:(1711-1779)
Z:M. Wood Hill
Z:Copyright © 2005 by the Choral Public Domain Library (http://www.cpdl.org)
Z:Edition may be freely distributed, duplicated, performed, or recorded.
Z:Please send comments, amendments, suggestions and corrections to robertnottingham6@hotmail.com
%%score 1 { ( 2 4 ) | ( 3 5 ) }
L:1/8
Q:1/4=120
M:2/2
K:C
V:1 bass nm="Baritone"
V:2 treble nm="Piano"
V:4 treble 
V:3 bass 
V:5 bass 
V:1
"^Allegro giusto" z4 | z8 | z8 | z8 | z8 | z8 | z4 (E,D,)(C,B,,) | A,,2 C2 B,2 A,2 | %8
w: ||||||Rail _ no _|more, ye learn- ed|
 ^G,2 A,2 D,2 E,2 | F,2 (E,D,) (C,B,,)(C,D,) | E,4 C3 B, | (A,G,)(F,E,) (F,E,)(D,C,) | %12
w: ass- es, 'Gainst the|joys the _ bowl _ sup- *|plies, Sound the|depth _ and _ fill _ your _|
 G,2 E,2 (F,E,)(D,C,) | B,,2 C,2 G,,3 G,, | C,4 z4 | z8 | z4 (C,D,)(E,F,) | G,2 E,2 F,2 D,2 | %18
w: glass- es, Wis- * dom _|in the bot- tom|lies.||Fill _ them _|high- er yet and|
 A,2 F,2 (G,F,)(G,A,) | _B,2 G,2 A,3 A, | D,4 D2 C2 | B,2 C2 (A,C)(B,A,) | (^G,2 A,2) C,B,,(C,D,) | %23
w: high- er, Shal- * low _|draughts per- plex the|brain; Sip- ping|quench- es all _ our _|fire, _ Bum- * pers _|
 E,2 A,2 (C,B,,)(C,D,) | (E,2 CB, A,G,F,E, | D,2 F,E, D,C,B,,A,, | ^G,,4) B,2 E,2 | %27
w: light it up _ a- *|gain. _ _ _ _ _ _|_ _ _ _ _ _ _|* Sip- ping|
 (CB,)(A,G,) F,2 D,2 | (DC B,2) ^G,2 E,2 | A,2 D,2 E,3 E, | A,,4 z4 | z8 | z8 | z8 | %34
w: quen- * ches _ all our|fire, _ _ Bum- pers|light it up a-|gain.||||
 z4 (E,D,)(C,B,,) | A,,2 C2 B,2 A,2 | ^G,2 A,2 D,2 E,2 | F,2 (E,D,) (C,B,,)(C,D,) | E,4 C3 B, | %39
w: Draw _ the _|scene for wit and|plea- sure, En- ter|Jol- li- * ty _ and _|Joy, We for|
 (A,G,)(F,E,) (F,E,)(D,C,) | G,2 E,2 (F,E,)(D,C,) | B,,2 C,2 G,,3 G,, | C,4 z4 | z8 | %44
w: think- * ing _ have _ no _|lei- sure, Man- * ly _|mirth is our em-|ploy.||
 z4 (C,D,)(E,F,) | G,2 E,2 F,2 D,2 | A,2 F,2 (G,F,)(G,A,) | _B,2 G,2 A,3 A, | D,4 D2 C2 | %49
w: Since _ in _|life there's no- thing|cer- tain We'll _ the _|pre- sent hour en-|gage, And when|
 B,2 C2 (A,C)(B,A,) | ^G,2 A,2 (C,B,,)(C,D,) | E,2 A,2 (C,B,,)(C,D,) | (E,2 CB, A,G,F,E, | %53
w: Death shall drop _ the _|cur- tain With _ ap- *|plause we'll leave _ the _|stage. _ _ _ _ _ _|
 D,2 F,E, D,C,B,,A,, | ^G,,4) B,2 E,2 | (CB,)(A,G,) F,2 D,2 | (DC) B,2 ^G,2 E,2 | A,2 D,2 E,3 E, | %58
w: _ _ _ _ _ _ _|* And when|Death _ shall _ drop the|cur- * tain With ap-|plause we'll leave the|
 A,,8- | A,,4 z4 | z4 |] %61
w: stage.|_||
V:2
 EDCB, | A,2 .[Aea]2 .[Bd^g]2 .[cea]2 | b z e z f2 [ce]d | [Ac]Bc[Bd] [EAe]2 [Bd][Ac] | %4
 [^GB]2 e2- ecde | fedc B2 [Bd^g]2 | [Aca]2 A2 z4 | z2 [EAe]2 [E^Gd]2 [EAc]2 | %8
 [EB]2 [EAc]2 [FAd]2 cB | A^G A2 c2 BA | [E^G]2 [EGB]2 e3 d | [Ac]BA[Gc] f3 e | %12
 [GBd]2 [CG]4 [DF]2- | [DF]2 [CE]2 D4 | [E,C]2 g4 f2- | fdec d4 | [Ec]4 z2 [EGc]2 | %17
 [DGB]2 [CGc]2 [CA]2 [FAd]2 | [EA^c]2 d=c BAB^c | d^c d2 c3 d | [Fd]^cde f4- | f2 e4 d2- | %22
 d2 cd [EAe]2 [CEA]2 | [B,E^G]2 A4 [CEA]2 | [B,E^G]2 AB c4- | c2 de f4 | !>!f2 e2 z2 [E^GB]2 | %27
 AB c2 d3 e | fedc B4 | [EAc]2 [FAd]2 [^GB]3 A | [CEA]2 [ce]4 [Bd][Ac] | [E^GB]2 A4 =GF | %32
 E^F^GA Bcde | fedc B2 [Bd^g]2 | [Aca]2 A2 edcB | A2 .[Aea]2 .[Bd^g]2 .[cea]2 | %36
 b z e z [df]2 [ce]d | [Ac]Bc[Bd] [Ae]2 [Bd][Ac] | B2 e2- ecde | fefg agfe | d2 [cg]4 [df-]2 | %41
 fdec d4 | [Ec]BAG FAdf- | fdec d4 | [Ec]def [Geg]2 [Gce]2 | [Bd]2 [cg]4 [cf]2 | %46
 [^ce]2 [fa]4 [eg]2 | [df][^ce]fg e3 d | d^cde [Af]dAF | Gd[ce]G FA[Gd]F | EF[Ec]B A4 | %51
 ^G2 A4 [cea]2 | [Be^g]2 [ea]b [ec']bag | x6 f2- | f2 e2 z2 [^Ge-]2 | edcB A z f2- | fe d2- dfed | %57
 c3 d B3 A | A2 e2- ecde | fedc B2 [Bd^g]2 | [Aca]2 !fermata!A2 |] %61
V:3
 E,D,C,B,, | A,,2 .[C,C]2 .[B,,B,]2 .[A,,A,]2 | [^G,,^G,]2 [A,,A,]2 D,2 E,2 | F,2 E,D, C,B,,C,D, | %4
 E,2 CB, A,G,F,E, | D,C,B,,A,, D,2 E,2 | A,2 A,2 E,D,C,B,, | A,,2 [C,C]2 [B,,B,]2 [A,,A,]2 | %8
 [^G,,^G,]2 [A,,A,]2 D,2 E,2 | F,2 E,D, C,B,,C,D, | E,2 [E,,E,]2 C3 B, | A,G,F,E, F,E,D,C, | %12
 G,2 E,2 F,E,D,C, | B,,2 C,2 G,,2 [G,,,G,,]2 | [C,,C,]2 E,2 F,E,D,C, | B,,2 [C,C]2 [G,,G,]2 G,,2 | %16
 [C,,C,]2 C,,2 C,D,E,F, | G,2 E,2 F,2 D,2 | A,2 F,2 G,F,G,A, | _B,2 G,2 A,2 A,,2 | D,2 z2 D2 C2 | %21
 [B,D]2 C2 A,C[B,D][A,C] | [^G,B,]2 A,2 C,B,,C,D, | E,2 A,2 C,B,,C,D, | E,2 CB, A,G,F,E, | %25
 D,2 F,E, D,C,B,,A,, | ^G,,2 ^G,2 B,2 E,2 | CB,A,G, F,2 D,2 | DC B,2 ^G,2 E,2 | A,2 D,2 E,2 E,,2 | %30
 A,,2 A,2 C,B,,C,D, | E,2 A,2 C,B,,C,D, | E,DCB, A,G,F,E, | D,C,B,,A,, D,2 E,2 | %34
 [A,,A,]2 A,,2 E,D,C,B,, | A,,2 [C,C]2 [B,,B,]2 [A,,A,]2 | [^G,,^G,]2 [A,,A,]2 D,2 E,2 | %37
 F,2 E,D, C,B,,C,D, | E,2 ED C3 B, | A,G,F,E, F,E,D,C, | G,2 E,2 F,E,D,C, | B,,2 C,2 G,2 G,,2 | %42
 C,2 E,2 F,E,D,C, | B,,2 C,2 [G,,G,]2 G,,2 | [C,,C,]2 C,,2 C,D,E,F, | G,2 E,2 [F,C]2 [D,D]2 | %46
 A,2 D=C [G,B,][F,A,][G,B,][A,^C] | [_B,D]2 [G,B,]2 A,2 A,,2 | [D,A,]2 z2 D2 C2 | %49
 B,2 C2 A,C[B,D][A,C] | [^G,B,]2 A,2 C,B,,C,D, | E,2 A,,2 C,B,,C,D, | E,DCB, A,G,F,E, | %53
 D,2 F,E, D,C,B,,A,, | ^G,,2 ^G,2 B,2 E,2 | CB,A,G, F,E,D,E | DCB,A, ^G,2 [E,G,]2 | %57
 [A,,A,]2 D,2 E,2 E,,2 | [A,,E,]2 CB, A,G,F,E, | %59
 D,C,B,,"^transcribed by Robert G. Nottingham June 2004rev. November 2005"A,, D,2 E,2 | %60
 [A,,A,]2 !fermata!A,,2 |] %61
V:4
 x4 | x8 | edcB [Ad]2 ^G2 | x8 | x2 ^G2 A z z2 | A z E z F2 x2 | x8 | x8 | x6 [D-^G]2 | %9
 D2 C2 E2 EF | x4 [E-A]2 [E^G]2 | x4 A2 F2 | x2 G,2 A,4 | G,4 [G,C]2 [F,B,]2 | %14
 x2 [Gc]2 [Ac]2 [Ad]2 | G2 G2 [Gc]2 [FB]2 | x8 | x8 | x2 [DA]2 D z z G | F2 [F_B]2 [EA]2 [EG]2 | %20
 x4 F2 A2 | G4 F4 | E4 x4 | x2 CD E2 x2 | x2 E2- E2 A^G | F2 A2- A2 dc | B4 x4 | E4 D2 F2 | %28
 A z z2 E2 ^G2 | x4 E2 D2 | x2 A2 E4 | x2 CD E3 F | x8 | x8 | x8 | x8 | edcB A2 ^G2 | x8 | %38
 ^G2 z ^F G z z =G | c z z c f z z c | B2 G2 A4 | G4 [Gc]2 [FB]2 | x8 | G z z2 [Gc]2 [FB]2 | x8 | %45
 G2 G2 A2 A2 | A2 A6 | x2 d2 [A^c]2 [GA]2 | x8 | x8 | x4 EDEF | EDCD E2 x2 | x8 | [Af]ede [Af]edc | %54
 BcBA ^G2 [ce][Bd] | [Ac] z z2 FGAG | A z ^GA B2 z2 | [EA]^G [FA]2 [EA]2 [DEG]2 | CE^F^G A z z2 | %59
 A z E z F2 x2 | x4 |] %61
V:5
 x4 | x8 | x8 | x8 | x8 | x8 | A,,4 x4 | x8 | x8 | x8 | x8 | x8 | x8 | x8 | x8 | x8 | x8 | x8 | %18
 x8 | x8 | x8 | x8 | x8 | x8 | x8 | x8 | x8 | x8 | x8 | x8 | x8 | x8 | x8 | x8 | x8 | x8 | x8 | %37
 x8 | x8 | x8 | x8 | x8 | x8 | x8 | x8 | x8 | x2 F,2 x4 | x8 | x8 | x8 | x8 | x8 | x8 | x8 | x8 | %55
 x8 | x8 | x8 | x8 | x8 | x4 |] %61

